X:19
T:Branle des chevaulx
T:Branle des chevaux
T:Horses' Branle
T:Horse's Brawl
T:Horses Bransle
R:misc
H:France 1589
Z:id:hn-misc-19
M:2/4
L:1/8
K:G
G>A BB | cB Ac | BA GF | E2 D2 |
G>A BB | cB Ac | BG AF | G2 G2 :|
|: dc/B/ AA/B/ | cB/A/ GB | AG FG | A2 A2 |
dc/B/ AA/B/ | cB/A/ GB | AG GF | G2 G2 :|
|: _BA/G/ BA/G/ | FG A2 | DE FG | A_B AG |
_BA/G/ BA/G/ | FG A2 | DE FG | GF G2 :|

